images/icons/phone.svg

<svg width="16" height="17" viewBox="0 0 16 17" fill="none" xmlns="http://www.w3.org/2000/svg">
<path fill-rule="evenodd" clip-rule="evenodd" d="M7.08912 5.45587C7.5036 4.8973 7.65223 4.30862 7.18346 3.78899C6.1315 2.31701 5.42402 1.40674 4.98026 0.968377C4.13661 0.13499 2.7488 0.247719 2.01814 0.967665C1.62569 1.35435 1.49284 1.48715 1.08988 1.89643C-1.15464 4.14216 0.214184 8.88955 3.85302 12.532C7.49103 16.1735 12.238 17.5431 14.4872 15.2926C14.859 14.9342 15.1739 14.6192 15.4221 14.3567C16.1382 13.5999 16.2469 12.2733 15.4174 11.4115C14.9922 10.9696 14.1242 10.2963 12.5903 9.1991C12.1205 8.77901 11.5634 8.87006 11.0527 9.2051C10.8071 9.36626 10.6283 9.52929 10.2907 9.8672L9.67775 10.4805C9.59701 10.5613 8.50069 10.0123 7.43648 8.94701C6.37168 7.88117 5.82302 6.7848 5.90338 6.70444L6.5168 6.09069C6.6239 5.98348 6.6751 5.93158 6.74077 5.86256C6.87758 5.71878 6.99085 5.5883 7.08912 5.45587ZM10.8085 11.6119L11.4216 10.9984C11.6074 10.8125 11.7278 10.6981 11.8257 10.6193C13.1695 11.5843 13.9477 12.191 14.2656 12.5213C14.4564 12.7196 14.4267 13.0814 14.2608 13.2568C14.0312 13.4994 13.733 13.7979 13.3669 14.151C11.9125 15.606 8.08063 14.5005 4.98401 11.4008C1.88642 8.30019 0.781412 4.46777 2.22486 3.02352C2.62619 2.61592 2.75335 2.48883 3.14019 2.10766C3.28523 1.96474 3.68032 1.93265 3.85677 2.10695C4.19842 2.44445 4.83218 3.25593 5.76447 4.5546C5.71621 4.61452 5.65593 4.68223 5.58257 4.75933C5.52873 4.81592 5.48387 4.86139 5.38581 4.95955L4.77299 5.5727C3.73047 6.61513 4.61832 8.38931 6.30548 10.0781C7.99149 11.7658 9.76633 12.6546 10.8085 11.6119ZM9.32791 0.44112C12.7866 0.860351 15.529 3.60279 15.9482 7.06145L14.3679 7.32484C14.0627 4.53894 11.8504 2.32661 9.06452 2.02147L9.32791 0.44112ZM8.80091 3.60317C10.9141 3.79218 12.5972 5.47523 12.7862 7.58844L11.2008 7.85268C11.1335 6.41197 9.97738 5.25587 8.53667 5.18859L8.80091 3.60317Z" fill="#293449"/>
</svg>

<svg width="16" height="17" fill="none" xmlns="http://www.w3.org/2000/svg"><path fill-rule="evenodd" clip-rule="evenodd" d="M7.09 5.46c.41-.56.56-1.15.1-1.67A25.55 25.55 0 0 0 4.97.97a2.17 2.17 0 0 0-2.96 0c-.4.38-.53.52-.93.93-2.24 2.24-.88 6.99 2.76 10.63 3.64 3.64 8.39 5.01 10.64 2.76l.93-.93c.72-.76.83-2.09 0-2.95a23.9 23.9 0 0 0-2.83-2.21c-.47-.42-1.03-.33-1.54 0-.24.17-.42.33-.76.67l-.61.61c-.08.08-1.18-.47-2.24-1.53C6.37 7.88 5.82 6.78 5.9 6.7l.62-.6a11.92 11.92 0 0 0 .57-.64Zm3.72 6.15.61-.61c.19-.19.3-.3.4-.38 1.35.96 2.13 1.57 2.45 1.9.19.2.16.56 0 .74l-.9.9c-1.46 1.45-5.29.34-8.39-2.76-3.1-3.1-4.2-6.93-2.76-8.38l.92-.91c.15-.15.54-.18.72 0 .34.33.97 1.15 1.9 2.44a3.38 3.38 0 0 1-.37.41l-.62.61c-1.04 1.05-.15 2.82 1.54 4.5 1.68 1.7 3.46 2.58 4.5 1.54ZM9.33.44a7.6 7.6 0 0 1 6.62 6.62l-1.58.26a6 6 0 0 0-5.3-5.3L9.32.44ZM8.8 3.6A4.4 4.4 0 0 1 12.8 7.6l-1.59.26A2.8 2.8 0 0 0 8.54 5.2L8.8 3.6Z" fill="#293449"/></svg>
